src/help-circle-fill.svg

<svg width="24" height="24" viewBox="0 0 24 24" xmlns="http://www.w3.org/2000/svg" xmlns:xlink="http://www.w3.org/1999/xlink">
  <path d="M12 2C6.48 2 2 6.48 2 12s4.48 10 10 10 10-4.48 10-10S17.52 2 12 2zm1 17h-2v-2h2v2zm2.07-7.75l-.9.92C13.45 12.9 13 13.5 13 15h-2v-.5c0-1.1.45-2.1 1.17-2.83l1.24-1.26c.37-.36.59-.86.59-1.41 0-1.1-.9-2-2-2s-2 .9-2 2H8c0-2.21 1.79-4 4-4s4 1.79 4 4c0 .88-.36 1.68-.93 2.25z" fill-rule="evenodd" fill="currentColor"/>
</svg>

<svg width="24" height="24" viewBox="0 0 24 24" xmlns="http://www.w3.org/2000/svg">
<path fill-rule="evenodd" clip-rule="evenodd" d="M12 2C6.48 2 2 6.48 2 12C2 17.52 6.48 22 12 22C17.52 22 22 17.52 22 12C22 6.48 17.52 2 12 2ZM13 19H11V17H13V19ZM15.07 11.25L14.17 12.17C13.45 12.9 13 13.5 13 15H11V14.5C11 13.4 11.45 12.4 12.17 11.67L13.41 10.41C13.78 10.05 14 9.55 14 9C14 7.9 13.1 7 12 7C10.9 7 10 7.9 10 9H8C8 6.79 9.79 5 12 5C14.21 5 16 6.79 16 9C16 9.88 15.64 10.68 15.07 11.25Z" fill="currentColor"/>
</svg>
